dist/img/svg/nadpis1.svg

<svg xmlns="http://www.w3.org/2000/svg" width="693" height="693" fill="none"><g clip-path="url(#a)"><path stroke="#D69153" d="M681.337 793.09c-38.751-117.215-79.388-169.188-181.39-222.176"/><path fill="#D69153" d="m245.702 303.943 10.812-3.684.428 1.257-9.672 3.296 1.625 4.77-1.139.388-2.054-6.027Zm13.523 20.491c-1.708.652-3.216.731-4.525.238-1.306-.488-2.253-1.501-2.84-3.038-.6-1.572-.584-2.969.048-4.191.638-1.219 1.833-2.163 3.585-2.832 1.737-.663 3.246-.748 4.527-.256 1.285.491 2.229 1.524 2.83 3.101.585 1.532.556 2.915-.089 4.148-.644 1.233-1.823 2.176-3.536 2.83Zm-3.245-8.504c-1.445.552-2.426 1.277-2.941 2.177-.509.902-.539 1.939-.092 3.112.452 1.182 1.165 1.933 2.14 2.252.974.319 2.187.202 3.637-.351 1.435-.548 2.408-1.265 2.917-2.151.516-.882.549-1.912.1-3.09-.451-1.182-1.17-1.939-2.155-2.271-.978-.329-2.181-.222-3.606.322Zm14.857 21.533-6.795 2.907c-1.197.512-2.293.553-3.287.122-.994-.43-1.762-1.277-2.302-2.541-.541-1.264-.615-2.391-.223-3.38.395-.985 1.195-1.735 2.402-2.251l6.766-2.895.523 1.221-6.853 2.932c-.876.374-1.446.902-1.711 1.581-.264.68-.198 1.484.2 2.413.379.886.905 1.468 1.579 1.746.679.276 1.459.226 2.34-.151l6.838-2.925.523 1.221Zm-3.213 20.247-.651-1.369 5.976-9.754-.026-.056a42.135 42.135 0 0 1-2.741 1.441l-5.863 2.788-.527-1.108 10.316-4.904.644 1.354-5.948 9.723.026.057c.123-.07.52-.285 1.191-.644a23.229 23.229 0 0 1 1.465-.74l5.919-2.815.534 1.122-10.315 4.905Zm11.717 9.849 1.805 3.438-4.918 2.582a12.522 12.522 0 0 1-1.244-1.43 13.996 13.996 0 0 1-1.141-1.853c-.804-1.531-.976-2.962-.515-4.292.465-1.333 1.519-2.43 3.16-3.292 1.052-.552 2.082-.825 3.091-.819a4.826 4.826 0 0 1 2.771.875c.836.572 1.533 1.391 2.093 2.457.566 1.079.896 2.188.988 3.328l-1.277.088c-.092-1.116-.36-2.096-.803-2.94-.646-1.232-1.518-2.001-2.614-2.307-1.096-.307-2.295-.119-3.595.563-1.365.717-2.226 1.593-2.583 2.627-.354 1.039-.193 2.204.485 3.496a9.86 9.86 0 0 0 1.321 1.927l3.112-1.634-1.187-2.262 1.051-.552Zm3.599 18.882-3.155-5.53 9.92-5.661 3.156 5.53-1.025.585-2.497-4.377-3.196 1.824 2.346 4.112-1.018.581-2.346-4.112-3.651 2.083 2.498 4.377-1.032.588Zm6.605 3.899 1.014-.617 1.995 3.277-1.014.617-1.995-3.277Zm7.618 18.983-.877-1.349 1.977-7.583-4.854 3.154-.724-1.113 9.577-6.224.724 1.114-4.638 3.014 7.443 1.303.83 1.277-7.405-1.216-2.053 7.623Zm13.192-.895 1.852 2.642c.87 1.241 1.314 2.269 1.331 3.083.018.815-.374 1.503-1.176 2.065-.555.389-1.122.554-1.703.497-.573-.056-1.121-.343-1.643-.861l-.064.045c.752 1.59.503 2.824-.746 3.7-.836.585-1.688.759-2.554.521-.864-.234-1.652-.859-2.363-1.874l-2.287-3.263 9.353-6.555Zm-3.242 3.894 1.255 1.791c.538.768 1.045 1.237 1.52 1.406.479.167 1.004.05 1.576-.351.525-.367.77-.82.738-1.356-.029-.54-.33-1.219-.904-2.038l-1.121-1.6-3.064 2.148Zm-.922.646-3.499 2.453 1.368 1.951c.529.755 1.071 1.22 1.627 1.397.564.177 1.157.048 1.779-.389.58-.406.869-.901.867-1.485.001-.579-.278-1.268-.837-2.065l-1.305-1.862Zm8.48 20.803 2.04-3.325-2.762-3.652-3.746 1.07-.81-1.071 11.871-3.317.674.891-6.438 10.501-.829-1.097Zm2.743-4.376 2.022-3.195c.253-.407.585-.88.994-1.418-.468.211-1.005.411-1.612.602l-3.633 1.063 2.229 2.948Zm13.581 11.876c-.898.73-1.838.984-2.823.764-.977-.219-1.928-.898-2.855-2.038l-.848-1.043-3.485 2.834-.838-1.03 8.862-7.206 1.868 2.298c1.801 2.214 1.84 4.022.119 5.421Zm-5.641-3.036.754.927c.743.914 1.428 1.454 2.055 1.623.626.168 1.265-.012 1.916-.541.586-.477.866-1.023.841-1.641-.025-.617-.368-1.332-1.028-2.144l-.937-1.152-3.601 2.928Zm6.7 16.765-.872-1.002 7.731-6.718-2.372-2.731.89-.774 5.617 6.463-.891.774-2.373-2.73-7.73 6.718Zm11.9 13.133 1.691-3.515-3.118-3.352-3.618 1.445-.915-.984 11.472-4.506.761.818-5.336 11.101-.937-1.007Zm2.285-4.633 1.686-3.383c.211-.431.492-.935.845-1.512a14.79 14.79 0 0 1-1.542.763l-3.507 1.427 2.518 2.705Zm9.619 16.769-.94-.938 7.233-7.252-2.628-2.621-1.495 1.157c-1.987 1.542-3.475 2.636-4.465 3.282-.983.646-1.774.989-2.374 1.03-.6.042-1.129-.173-1.587-.644a2.641 2.641 0 0 1-.597-.872l.789-.791c.103.295.264.55.481.767a.942.942 0 0 0 .746.27c.31-.015.716-.165 1.221-.449.511-.284 1.403-.895 2.676-1.832a209.524 209.524 0 0 0 4.658-3.531l4.348 4.336-8.066 8.088Zm21.391 4.441 2.417 2.137c1.135 1.004 1.807 1.9 2.014 2.688.207.788-.014 1.549-.663 2.282-.448.508-.962.801-1.54.881-.57.079-1.17-.072-1.799-.454l-.051.058c1.102 1.372 1.148 2.629.137 3.772-.676.765-1.464 1.132-2.362 1.103-.894-.027-1.806-.45-2.735-1.272l-2.984-2.639 7.566-8.556Zm-2.245 4.543 1.639 1.449c.702.621 1.304.959 1.805 1.013.505.05.989-.186 1.451-.709.425-.48.558-.977.401-1.491-.153-.519-.605-1.109-1.354-1.771l-1.463-1.294-2.479 2.803Zm-.745.843-2.831 3.201 1.785 1.579c.691.61 1.327.937 1.909.978.589.042 1.135-.223 1.639-.792.469-.531.635-1.08.497-1.647-.135-.563-.566-1.168-1.296-1.813l-1.703-1.506Zm20.966 24.477 1.124-3.735-3.602-2.826-3.349 1.99-1.057-.829 10.632-6.237.879.69-3.545 11.796-1.082-.849Zm1.536-4.931 1.139-3.605c.142-.458.341-1 .6-1.625a14.84 14.84 0 0 1-1.405.994l-3.241 1.955 2.907 2.281Zm16.164 8.019c-.682.934-1.526 1.42-2.534 1.459-1.001.037-2.095-.377-3.281-1.243l-1.086-.792-2.647 3.63-1.073-.783 6.731-9.228 2.392 1.745c2.306 1.682 2.805 3.419 1.498 5.212Zm-6.229-1.497.966.704c.951.694 1.751 1.042 2.4 1.045.649.003 1.221-.335 1.715-1.012.445-.61.576-1.211.395-1.801-.182-.59-.696-1.194-1.542-1.811l-1.199-.874-2.735 3.749Zm15.85 13.932c-.637.94-1.388 1.443-2.253 1.512-.86.07-1.852-.276-2.977-1.039l-2.767-1.877 6.413-9.452 5.573 3.782-.663.976-4.473-3.036-2.075 3.058 1.467.996c.832.564 1.443 1.12 1.833 1.668.393.543.587 1.088.582 1.632-.004.545-.224 1.138-.66 1.78Zm-6.253-1.609 1.545 1.048c.819.556 1.508.82 2.069.791.565-.026 1.066-.36 1.501-1.002.416-.612.521-1.176.318-1.692-.204-.516-.778-1.094-1.722-1.734l-1.338-.908-2.373 3.497Zm16.173 11.938-5.383-3.401 6.1-9.656 5.383 3.4-.63.997-4.26-2.691-1.966 3.111 4.003 2.529-.626.99-4.002-2.528-2.245 3.554 4.26 2.691-.634 1.004Zm13.655 8.155-1.389-.815-1.625-7.665-2.93 4.993-1.145-.672 5.779-9.852 1.146.672-2.799 4.771 7.24-2.165 1.314.77-7.167 2.227 1.576 7.736Zm17.405 3.003c-.865 1.61-1.954 2.657-3.266 3.14-1.308.485-2.687.339-4.136-.441-1.482-.796-2.384-1.863-2.705-3.201-.315-1.34-.028-2.836.859-4.487.881-1.638 1.966-2.689 3.257-3.155 1.293-.469 2.683-.305 4.169.494 1.445.777 2.327 1.842 2.646 3.196.319 1.354.044 2.839-.824 4.454Zm-8.016-4.31c-.733 1.363-1 2.553-.802 3.57.206 1.015.861 1.82 1.967 2.414 1.115.599 2.145.701 3.091.305.946-.396 1.787-1.278 2.522-2.645.727-1.353.994-2.532.8-3.535-.187-1.005-.836-1.806-1.946-2.403-1.115-.599-2.153-.702-3.116-.309-.955.392-1.794 1.259-2.516 2.603Zm17.582 2.794 2.898 1.417c1.362.666 2.247 1.351 2.657 2.055.409.705.398 1.497-.032 2.376-.297.609-.714 1.028-1.25 1.259-.529.228-1.147.242-1.855.041l-.034.07c1.428 1.029 1.806 2.228 1.136 3.599-.448.917-1.109 1.481-1.983 1.692-.87.212-1.861.046-2.975-.498l-3.579-1.75 5.017-10.261Zm-.955 4.977 1.965.96c.842.412 1.512.577 2.01.496.5-.086.903-.442 1.21-1.069.281-.576.278-1.091-.011-1.545-.286-.458-.878-.907-1.776-1.346l-1.755-.858-1.643 3.362Zm-.494 1.01-1.877 3.84 2.14 1.046c.828.405 1.528.55 2.1.436.579-.117 1.036-.517 1.37-1.201.311-.636.325-1.209.04-1.719-.279-.508-.856-.975-1.731-1.403l-2.042-.999Zm22.304 9.975c-.739 1.672-1.744 2.799-3.015 3.382-1.267.585-2.653.544-4.158-.121-1.538-.68-2.52-1.675-2.943-2.984-.417-1.312-.246-2.825.512-4.54.752-1.701 1.753-2.832 3.005-3.395 1.253-.568 2.651-.511 4.195.171 1.5.664 2.461 1.658 2.883 2.984.422 1.325.263 2.826-.479 4.503Zm-8.324-3.68c-.625 1.415-.8 2.622-.524 3.621.282.996.998 1.748 2.146 2.255 1.157.512 2.193.534 3.106.066.912-.467 1.683-1.411 2.31-2.831.621-1.405.797-2.6.526-3.585-.263-.988-.972-1.737-2.125-2.246-1.157-.512-2.201-.535-3.13-.069-.922.464-1.692 1.393-2.309 2.789Z"/><path stroke="#D69153" d="M-.947-13.562c103.192 67.768 222.612 191.26 247.394 303.5"/></g><defs><clipPath id="a"><path fill="#fff" d="M0 0h693v693H0z"/></clipPath></defs></svg>

<svg width="693" height="693" viewBox="0 0 693 693" fill="none" xmlns="http://www.w3.org/2000/svg">
<g clip-path="url(#clip0_383_1284)">
<path d="M681.337 793.09C642.586 675.875 601.949 623.902 499.947 570.914" stroke="#D69153"/>
<path d="M245.702 303.943L256.514 300.259L256.942 301.516L247.27 304.812L248.895 309.582L247.756 309.97L245.702 303.943Z" fill="#D69153"/>
<path d="M259.225 324.434C257.517 325.086 256.009 325.165 254.7 324.672C253.394 324.184 252.447 323.171 251.86 321.634C251.26 320.062 251.276 318.665 251.908 317.443C252.546 316.224 253.741 315.28 255.493 314.611C257.23 313.948 258.739 313.863 260.02 314.355C261.305 314.846 262.249 315.879 262.85 317.456C263.435 318.988 263.406 320.371 262.761 321.604C262.117 322.837 260.938 323.78 259.225 324.434ZM255.98 315.93C254.535 316.482 253.554 317.207 253.039 318.107C252.53 319.009 252.5 320.046 252.947 321.219C253.399 322.401 254.112 323.152 255.087 323.471C256.061 323.79 257.274 323.673 258.724 323.12C260.159 322.572 261.132 321.855 261.641 320.969C262.157 320.087 262.19 319.057 261.741 317.879C261.29 316.697 260.571 315.94 259.586 315.608C258.608 315.279 257.405 315.386 255.98 315.93Z" fill="#D69153"/>
<path d="M270.837 337.463L264.042 340.37C262.845 340.882 261.749 340.923 260.755 340.492C259.761 340.062 258.993 339.215 258.453 337.951C257.912 336.687 257.838 335.56 258.23 334.571C258.625 333.586 259.425 332.836 260.632 332.32L267.398 329.425L267.921 330.646L261.068 333.578C260.192 333.952 259.622 334.48 259.357 335.159C259.093 335.839 259.159 336.643 259.557 337.572C259.936 338.458 260.462 339.04 261.136 339.318C261.815 339.594 262.595 339.544 263.476 339.167L270.314 336.242L270.837 337.463Z" fill="#D69153"/>
<path d="M267.624 357.71L266.973 356.341L272.949 346.587L272.923 346.531C271.942 347.089 271.029 347.57 270.182 347.972L264.319 350.76L263.792 349.652L274.108 344.748L274.752 346.102L268.804 355.825L268.83 355.882C268.953 355.812 269.35 355.597 270.021 355.238C270.697 354.876 271.185 354.629 271.486 354.498L277.405 351.683L277.939 352.805L267.624 357.71Z" fill="#D69153"/>
<path d="M279.341 367.559L281.146 370.997L276.228 373.579C275.777 373.133 275.362 372.657 274.984 372.149C274.606 371.642 274.225 371.024 273.843 370.296C273.039 368.765 272.867 367.334 273.328 366.004C273.793 364.671 274.847 363.574 276.488 362.712C277.54 362.16 278.57 361.887 279.579 361.893C280.595 361.901 281.518 362.192 282.35 362.768C283.186 363.34 283.883 364.159 284.443 365.225C285.009 366.304 285.339 367.413 285.431 368.553L284.154 368.641C284.062 367.525 283.794 366.545 283.351 365.701C282.705 364.469 281.833 363.7 280.737 363.394C279.641 363.087 278.442 363.275 277.142 363.957C275.777 364.674 274.916 365.55 274.559 366.584C274.205 367.623 274.366 368.788 275.044 370.08C275.412 370.78 275.852 371.423 276.365 372.007L279.477 370.373L278.29 368.111L279.341 367.559Z" fill="#D69153"/>
<path d="M282.94 386.441L279.785 380.911L289.705 375.25L292.861 380.78L291.836 381.365L289.339 376.988L286.143 378.812L288.489 382.924L287.471 383.505L285.125 379.393L281.474 381.476L283.972 385.853L282.94 386.441Z" fill="#D69153"/>
<path d="M289.545 390.34L290.559 389.723L292.554 393L291.54 393.617L289.545 390.34Z" fill="#D69153"/>
<path d="M297.163 409.323L296.286 407.974L298.263 400.391L293.409 403.545L292.685 402.432L302.262 396.208L302.986 397.322L298.348 400.336L305.791 401.639L306.621 402.916L299.216 401.7L297.163 409.323Z" fill="#D69153"/>
<path d="M310.355 408.428L312.207 411.07C313.077 412.311 313.521 413.339 313.538 414.153C313.556 414.968 313.164 415.656 312.362 416.218C311.807 416.607 311.24 416.772 310.659 416.715C310.086 416.659 309.538 416.372 309.016 415.854L308.952 415.899C309.704 417.489 309.455 418.723 308.206 419.599C307.37 420.184 306.518 420.358 305.652 420.12C304.788 419.886 304 419.261 303.289 418.246L301.002 414.983L310.355 408.428ZM307.113 412.322L308.368 414.113C308.906 414.881 309.413 415.35 309.888 415.519C310.367 415.686 310.892 415.569 311.464 415.168C311.989 414.801 312.234 414.348 312.202 413.812C312.173 413.272 311.872 412.593 311.298 411.774L310.177 410.174L307.113 412.322ZM306.191 412.968L302.692 415.421L304.06 417.372C304.589 418.127 305.131 418.592 305.687 418.769C306.251 418.946 306.844 418.817 307.466 418.38C308.046 417.974 308.335 417.479 308.333 416.895C308.334 416.316 308.055 415.627 307.496 414.83L306.191 412.968Z" fill="#D69153"/>
<path d="M314.671 433.771L316.711 430.446L313.949 426.794L310.203 427.864L309.393 426.793L321.264 423.476L321.938 424.367L315.5 434.868L314.671 433.771ZM317.414 429.395L319.436 426.2C319.689 425.793 320.021 425.32 320.43 424.782C319.962 424.993 319.425 425.193 318.818 425.384L315.185 426.447L317.414 429.395Z" fill="#D69153"/>
<path d="M330.995 441.271C330.097 442.001 329.157 442.255 328.172 442.035C327.195 441.816 326.244 441.137 325.317 439.997L324.469 438.954L320.984 441.788L320.146 440.758L329.008 433.552L330.876 435.85C332.677 438.064 332.716 439.872 330.995 441.271ZM325.354 438.235L326.108 439.162C326.851 440.076 327.536 440.616 328.163 440.785C328.789 440.953 329.428 440.773 330.079 440.244C330.665 439.767 330.945 439.221 330.92 438.603C330.895 437.986 330.552 437.271 329.892 436.459L328.955 435.307L325.354 438.235Z" fill="#D69153"/>
<path d="M332.054 455L331.182 453.998L338.913 447.28L336.541 444.549L337.431 443.775L343.048 450.238L342.157 451.012L339.784 448.282L332.054 455Z" fill="#D69153"/>
<path d="M343.954 468.133L345.645 464.618L342.527 461.266L338.909 462.711L337.994 461.727L349.466 457.221L350.227 458.039L344.891 469.14L343.954 468.133ZM346.239 463.5L347.925 460.117C348.136 459.686 348.417 459.182 348.77 458.605C348.326 458.862 347.812 459.116 347.228 459.368L343.721 460.795L346.239 463.5Z" fill="#D69153"/>
<path d="M355.858 480.269L354.918 479.331L362.151 472.079L359.523 469.458L358.028 470.615C356.041 472.157 354.553 473.251 353.563 473.897C352.58 474.543 351.789 474.886 351.189 474.927C350.589 474.969 350.06 474.754 349.602 474.283C349.33 474.011 349.13 473.72 349.005 473.411L349.794 472.62C349.897 472.915 350.058 473.17 350.275 473.387C350.471 473.582 350.719 473.672 351.021 473.657C351.331 473.642 351.737 473.492 352.242 473.208C352.753 472.924 353.645 472.313 354.918 471.376C356.199 470.439 357.751 469.262 359.576 467.845L363.924 472.181L355.858 480.269Z" fill="#D69153"/>
<path d="M377.249 484.71L379.666 486.847C380.801 487.851 381.473 488.747 381.68 489.535C381.887 490.323 381.666 491.084 381.017 491.817C380.569 492.325 380.055 492.618 379.477 492.698C378.907 492.777 378.307 492.626 377.678 492.244L377.627 492.302C378.729 493.674 378.775 494.931 377.764 496.074C377.088 496.839 376.3 497.206 375.402 497.177C374.508 497.15 373.596 496.727 372.667 495.905L369.683 493.266L377.249 484.71ZM375.004 489.253L376.643 490.702C377.345 491.323 377.947 491.661 378.448 491.715C378.953 491.765 379.437 491.529 379.899 491.006C380.324 490.526 380.457 490.029 380.3 489.515C380.147 488.996 379.695 488.406 378.946 487.744L377.483 486.45L375.004 489.253ZM374.259 490.096L371.428 493.297L373.213 494.876C373.904 495.486 374.54 495.813 375.122 495.854C375.711 495.896 376.257 495.631 376.761 495.062C377.23 494.531 377.396 493.982 377.258 493.415C377.123 492.852 376.692 492.247 375.962 491.602L374.259 490.096Z" fill="#D69153"/>
<path d="M395.225 514.573L396.349 510.838L392.747 508.012L389.398 510.002L388.341 509.173L398.973 502.936L399.852 503.626L396.307 515.422L395.225 514.573ZM396.761 509.642L397.9 506.037C398.042 505.579 398.241 505.037 398.5 504.412C398.101 504.735 397.633 505.066 397.095 505.406L393.854 507.361L396.761 509.642Z" fill="#D69153"/>
<path d="M412.925 517.661C412.243 518.595 411.399 519.081 410.391 519.12C409.39 519.157 408.296 518.743 407.11 517.877L406.024 517.085L403.377 520.715L402.304 519.932L409.035 510.704L411.427 512.449C413.733 514.131 414.232 515.868 412.925 517.661ZM406.696 516.164L407.662 516.868C408.613 517.562 409.413 517.91 410.062 517.913C410.711 517.916 411.283 517.578 411.777 516.901C412.222 516.291 412.353 515.69 412.172 515.1C411.99 514.51 411.476 513.906 410.63 513.289L409.431 512.415L406.696 516.164Z" fill="#D69153"/>
<path d="M422.546 530.096C421.909 531.036 421.158 531.539 420.293 531.608C419.433 531.678 418.441 531.332 417.316 530.569L414.549 528.692L420.962 519.24L426.535 523.022L425.872 523.998L421.399 520.962L419.324 524.02L420.791 525.016C421.623 525.58 422.234 526.136 422.624 526.684C423.017 527.227 423.211 527.772 423.206 528.316C423.202 528.861 422.982 529.454 422.546 530.096ZM416.293 528.487L417.838 529.535C418.657 530.091 419.346 530.355 419.907 530.326C420.472 530.3 420.973 529.966 421.408 529.324C421.824 528.712 421.929 528.148 421.726 527.632C421.522 527.116 420.948 526.538 420.004 525.898L418.666 524.99L416.293 528.487Z" fill="#D69153"/>
<path d="M432.466 540.425L427.083 537.024L433.183 527.368L438.566 530.768L437.936 531.765L433.676 529.074L431.71 532.185L435.713 534.714L435.087 535.704L431.085 533.176L428.84 536.73L433.1 539.421L432.466 540.425Z" fill="#D69153"/>
<path d="M446.121 548.58L444.732 547.765L443.107 540.1L440.177 545.093L439.032 544.421L444.811 534.569L445.957 535.241L443.158 540.012L450.398 537.847L451.712 538.617L444.545 540.844L446.121 548.58Z" fill="#D69153"/>
<path d="M463.526 551.583C462.661 553.193 461.572 554.24 460.26 554.723C458.952 555.208 457.573 555.062 456.124 554.282C454.642 553.486 453.74 552.419 453.419 551.081C453.104 549.741 453.391 548.245 454.278 546.594C455.159 544.956 456.244 543.905 457.535 543.439C458.828 542.97 460.218 543.134 461.704 543.933C463.149 544.71 464.031 545.775 464.35 547.129C464.669 548.483 464.394 549.968 463.526 551.583ZM455.51 547.273C454.777 548.636 454.51 549.826 454.708 550.843C454.914 551.858 455.569 552.663 456.675 553.257C457.79 553.856 458.82 553.958 459.766 553.562C460.712 553.166 461.553 552.284 462.288 550.917C463.015 549.564 463.282 548.385 463.088 547.382C462.901 546.377 462.252 545.576 461.142 544.979C460.027 544.38 458.989 544.277 458.026 544.67C457.071 545.062 456.232 545.929 455.51 547.273Z" fill="#D69153"/>
<path d="M473.092 550.067L475.99 551.484C477.352 552.15 478.237 552.835 478.647 553.539C479.056 554.244 479.045 555.036 478.615 555.915C478.318 556.524 477.901 556.943 477.365 557.174C476.836 557.402 476.218 557.416 475.51 557.215L475.476 557.285C476.904 558.314 477.282 559.513 476.612 560.884C476.164 561.801 475.503 562.365 474.629 562.576C473.759 562.788 472.768 562.622 471.654 562.078L468.075 560.328L473.092 550.067ZM472.137 555.044L474.102 556.004C474.944 556.416 475.614 556.581 476.112 556.5C476.612 556.414 477.015 556.058 477.322 555.431C477.603 554.855 477.6 554.34 477.311 553.886C477.025 553.428 476.433 552.979 475.535 552.54L473.78 551.682L472.137 555.044ZM471.643 556.054L469.766 559.894L471.906 560.94C472.734 561.345 473.434 561.49 474.006 561.376C474.585 561.259 475.042 560.859 475.376 560.175C475.687 559.539 475.701 558.966 475.416 558.456C475.137 557.948 474.56 557.481 473.685 557.053L471.643 556.054Z" fill="#D69153"/>
<path d="M493.947 566.029C493.208 567.701 492.203 568.828 490.932 569.411C489.665 569.996 488.279 569.955 486.774 569.29C485.236 568.61 484.254 567.615 483.831 566.306C483.414 564.994 483.585 563.481 484.343 561.766C485.095 560.065 486.096 558.934 487.348 558.371C488.601 557.803 489.999 557.86 491.543 558.542C493.043 559.206 494.004 560.2 494.426 561.526C494.848 562.851 494.689 564.352 493.947 566.029ZM485.623 562.349C484.998 563.764 484.823 564.971 485.099 565.97C485.381 566.966 486.097 567.718 487.245 568.225C488.402 568.737 489.438 568.759 490.351 568.291C491.263 567.824 492.034 566.88 492.661 565.46C493.282 564.055 493.458 562.86 493.187 561.875C492.924 560.887 492.215 560.138 491.062 559.629C489.905 559.117 488.861 559.094 487.932 559.56C487.01 560.024 486.24 560.953 485.623 562.349Z" fill="#D69153"/>
<path d="M-0.947144 -13.5615C102.245 54.2064 221.665 177.698 246.447 289.938" stroke="#D69153"/>
</g>
<defs>
<clipPath id="clip0_383_1284">
<rect width="693" height="693" fill="white"/>
</clipPath>
</defs>
</svg>
